X:1
T:Title
%%score { ( 1 5 6 ) | ( 2 3 4 ) }
L:1/8
M:6/4
K:Bb
V:1 bass nm="Grand Piano"
V:5 bass 
V:6 bass 
V:2 bass 
V:3 bass 
V:4 bass 
V:1
 z6 z4[Q:1/4=174] D2 | [F,D]2 E2 C2 D2[K:treble] G2 F2 | [G,C=E]2 E2 E2 E4 E2 | %3
 [A,E]2 E2 D2 [CE]2 D2 E2 | [B,DF]2 [C=E]2 [B,E]2 [C_E]4 E2 | [F,D]2 E2[K:treble] C2 D2 G2 F2 | %6
 [G,C=E]2 E2 E2 E4 E2 | E2 D2 E2 E2 G2 F2 |[M:5/4] E F3 E2 D4 |[M:1/4] F2 | %10
[M:6/4] [B,DF]6 [A,F]4 [CE]2 | [F,B,D]6- [F,B,D]4 [F,D]2 | [G,E]6 G4 ^F2 | [B,DF]6- [B,DF]4 F2 | %14
 F6 G4 F2 | =E6 E4 E2 | z6 z2 F4 |[M:5/4] D2- D2- D6 |] %18
V:2
 z6 z4 F,2 | z2 G,2 A,2 B,2 E2 D2 | z4 D2 C4 B,2 | z2 A,2 B,2 z2 =B,2 C2 | .B,,4 G,2 F,4 F,2 | %5
 z2 G,2 A,2 B,2 E2 D2 | z4 D2 C4 C2 | C2 =B,2 C2 z2 E2 D2 | %8
[M:5/4] [F,A,C] [F,B,D]3 [F,A,C]2 [B,,F,B,]4 |[M:1/4] F,2 |[M:6/4] z6 F,6 | B,,6- B,,4 B,,2 | %12
 z6 B,4 E2 | B,,6- B,,4 F,2 | D6 E4 [G,D]2 | z6 .G,6 | z6 z2 D4 | %17
[M:5/4] [B,,F,B,]2- [B,,F,B,]2- [B,,F,B,]6 |] %18
V:3
 x12 | B,,12 | z2 G,4- G,6 | z6 A,6 | z2 C,4 z6 | B,,12 | z2 G,4- G,6 | [F,A,]6 [F,,F,]6 | %8
[M:5/4] x10 |[M:1/4] x2 |[M:6/4] B,,6 z4 F,,2 | x12 | E,12 | x12 | [G,=B,]12 | %15
 [C,G,C]6 C,4- [C,B,]2 | z2 _A,2 =A,2 z2 z2 z C |[M:5/4] x10 |] %18
V:4
 x12 | x12 | C,12 | F,12 | x12 | x12 | C,12 | x12 |[M:5/4] x10 |[M:1/4] x2 |[M:6/4] x12 | x12 | %12
 x12 | x12 | x12 | x12 | F,6 F,4 F,2 |[M:5/4] x10 |] %18
V:5
 x12 | x8[K:treble] x4 | x12 | x12 | z6 A,6 | x4[K:treble] x8 | x12 | x12 |[M:5/4] x10 | %9
[M:1/4] x2 |[M:6/4] x12 | x12 | x12 | x12 | x12 | x12 | [A,E]2 E2 E2 .[A,E]4 z E |[M:5/4] x10 |] %18
V:6
 x12 | x8[K:treble] x4 | x12 | x12 | x12 | x4[K:treble] x8 | x12 | x12 |[M:5/4] x10 |[M:1/4] x2 | %10
[M:6/4] x12 | x12 | x12 | x12 | x12 | x12 | z6 z4 A,2 |[M:5/4] x10 |] %18

